PortableApps/LibreOfficePortable/App/libreoffice/help/media/icon-themes/cmd/sc_mailmergeexcludeentry.svg

<svg viewBox="0 0 16 16" xmlns="http://www.w3.org/2000/svg">/&amp;amp;gt;<path d="m1 0c-.554 0-1 .446-1 1v14c0 .554.446 1 1 1h5.0292969a5.5 5.5 0 0 1 .1855469-1h-5.2148438v-14h10v5.0410156a3.5 3.5 0 0 1 .5-.0410156 3.5 3.5 0 0 1 .5.0390625v-5.0390625c0-.554-.446-1-1-1z" fill="#808080"/><path d="m1 1v14h5.2148438a5.5 5.5 0 0 1 2.5800781-3.28125 3.5 3.5 0 0 1 -.7949219-2.21875 3.5 3.5 0 0 1 3-3.4589844v-5.0410156z" fill="#fff"/><path d="m3 2c-.554 0-1 .446-1 1v12c0 .554.446 1 1 1h3.0292969a5.5 5.5 0 0 1 .1855469-1h-3.2148438v-12h10v3.3417969a3.5 3.5 0 0 1 1 .7128906v-4.0546875c0-.554-.446-1-1-1z" fill="#808080"/><path d="m3 3v12h3.2148438a5.5 5.5 0 0 1 2.5800781-3.28125 3.5 3.5 0 0 1 -.7949219-2.21875 3.5 3.5 0 0 1 3.5-3.5 3.5 3.5 0 0 1 1.5.3417969v-3.3417969z" fill="#fff"/><g fill="#4d82b8"><circle cx="11.5" cy="9.5" r="2.5"/><path d="m11.5 12a4.5 4 0 0 0 -4.5 4h1a3.5 3 0 0 1 3.5-3 3.5 3 0 0 1 3.5 3h1a4.5 4 0 0 0 -4.5-4z"/></g><circle cx="11.5" cy="16.5" fill="#fff" r="0"/></svg>

<svg viewBox="0 0 16 16" xmlns="http://www.w3.org/2000/svg">
  <path
     style="fill:#ffffff"
     d="M 1 1 L 1 15 L 6.1289062 15 C 6.4669438 13.565282 7.5003681 12.402247 8.8535156 11.708984 C 8.3447729 11.100756 8 10.347865 8 9.5 C 8 7.7500665 9.3145894 6.2981765 11 6.0507812 L 11 1 L 1 1 z "
     />
  <path
     style="fill:#808080"
     d="M 1 0 C 0.446 0 0 0.446 0 1 L 0 15 C 0 15.554 0.446 16 1 16 L 5.9707031 16 L 6.0136719 15.824219 C 6.0250554 15.540072 6.0661741 15.266252 6.1289062 15 L 1 15 L 1 1 L 11 1 L 11 6.0507812 C 11.164905 6.0265754 11.328781 6 11.5 6 C 11.671219 6 11.835095 6.0265754 12 6.0507812 L 12 1 C 12 0.446 11.554 0 11 0 L 1 0 z "
     />
  <circle
     style="fill:#e68497"
     cx="11.5"
     cy="9.5"
     r="2.5"
     />
  <path
     style="fill:#e68497"
     d="M 11.5,12 A 4.5,4 0 0 0 7,16 h 1 a 3.5,3 0 0 1 3.5,-3 3.5,3 0 0 1 3.5,3 h 1 a 4.5,4 0 0 0 -4.5,-4 z"
     />
</svg>
